Costumes/G-glow.svg

<?xml version="1.0" encoding="UTF-8" standalone="no"?>
<svg
   version="1.1"
   width="65.190002"
   height="78.830002"
   id="svg8"
   sodipodi:docname="G-glow.svg"
   xmlns:inkscape="http://www.inkscape.org/namespaces/inkscape"
   xmlns:sodipodi="http://sodipodi.sourceforge.net/DTD/sodipodi-0.dtd"
   xmlns="http://www.w3.org/2000/svg"
   xmlns:svg="http://www.w3.org/2000/svg">
  <defs
     id="defs12" />
  <sodipodi:namedview
     id="namedview10"
     pagecolor="#ffffff"
     bordercolor="#000000"
     borderopacity="0.25"
     inkscape:showpageshadow="2"
     inkscape:pageopacity="0.0"
     inkscape:pagecheckerboard="0"
     inkscape:deskcolor="#d1d1d1" />
  <!-- Exported by Scratch - http://scratch.mit.edu/ -->
  <g
     id="ID0.7915165354497731">
    <g
       id="ID0.42775065964087844">
      <g
         id="ID0.6343233711086214">
        <path
           id="ID0.12705623172223568"
           fill="#00cccc"
           d="m 61.36,49.73 c -0.79,0.8 -1.85,1.66 -3.23,2.4 0.2,1.58 0.43,3.39 0.7,5.42 0.4,1.04 0.83,2.26 1.29,3.74 0.19,0.63 0.33,1.27 0.41,1.93 0.59,4.76 -1.34,9.39 -5.17,12.36 -2.73,2.12 -6.02,3.25 -9.52,3.25 -2.67,0 -5.14,-0.67 -7.24,-1.92 -2.96,1.09 -6.16,1.65 -9.57,1.65 -4.94,0 -9.78,-1.19 -14.36,-3.55 C 10.5,72.95 7.1,69.57 4.55,64.98 1.53,59.53 0,52.97 0,45.48 0,43.3 0.12,41.38 0.38,39.62 0.55,38.42 0.77,36.71 1.06,34.49 1.18,33.54 1.43,32.61 1.79,31.73 2.18,29.85 2.77,27.52 3.58,24.65 3.69,24.25 3.83,23.86 3.98,23.47 7.39,15.11 12.28,9.08 18.52,5.56 23.28,2.87 28.39,1.5 33.7,1.5 c 2.09,0 4.12,0.21 6.09,0.64 C 41.83,0.84 44.44,0 47.68,0 c 1.82,0 3.56,0.37 5.19,1.09 4.2,1.79 7.1,5.49 7.79,9.99 0.02,0.14 0.04,0.28 0.06,0.42 0.28,2.42 0.14,5.42 -0.45,9.66 -0.04,1.96 -0.39,4.04 -1.07,6.34 -0.13,0.44 -0.29,0.87 -0.48,1.29 0.66,0.39 1.28,0.85 1.86,1.38 2.97,2.73 4.61,6.39 4.61,10.3 0,3.5 -1.36,6.79 -3.83,9.26 z" />
      </g>
    </g>
    <g
       id="ID0.38214122224599123">
      <path
         id="ID0.8642155146226287"
         fill="#ffffff"
         d="m 53.575,41.965 c -0.587,0.587 -1.495,0.909 -2.727,0.967 0.82,-0.058 -0.176,-0.116 -2.991,-0.176 -0.176,1.643 -0.558,3.87 -1.144,6.686 0.293,2.521 0.762,6.188 1.407,10.995 0.41,0.879 0.909,2.258 1.496,4.134 0.116,0.939 -0.221,1.716 -1.012,2.331 -0.792,0.616 -1.716,0.924 -2.771,0.924 -0.998,0 -1.73,-0.293 -2.199,-0.88 -0.06,-0.585 -0.235,-1.495 -0.528,-2.727 -0.587,-1.642 -0.851,-2.668 -0.791,-3.079 0.058,0 0,-0.116 -0.177,-0.352 -3.284,4.517 -7.652,6.773 -13.105,6.773 -3.226,0 -6.363,-0.792 -9.412,-2.375 -2.17,-1.056 -3.988,-2.903 -5.453,-5.542 -2.111,-3.812 -3.167,-8.532 -3.167,-14.162 0,-1.641 0.088,-3.078 0.264,-4.31 0.176,-1.232 0.41,-2.99 0.704,-5.277 0.116,-0.117 0.233,-0.353 0.352,-0.704 0.293,-1.7 0.908,-4.222 1.848,-7.564 2.463,-6.039 5.717,-10.203 9.763,-12.49 3.108,-1.76 6.362,-2.639 9.764,-2.639 4.104,0 7.799,1.35 11.084,4.046 0.058,-0.058 0.116,-0.321 0.176,-0.792 -0.118,-0.761 -0.118,-1.876 0,-3.342 0.233,-0.938 1.144,-1.408 2.727,-1.408 0.293,0 0.557,0.06 0.792,0.177 0.761,0.294 1.201,0.821 1.319,1.583 0.176,1.525 0,4.076 -0.528,7.652 0.058,1.056 -0.146,2.375 -0.615,3.958 -0.646,0.704 -1.379,1.056 -2.199,1.056 -1.29,0 -2.229,-0.557 -2.814,-1.671 0,-0.41 -0.088,-0.938 -0.264,-1.584 -0.938,-1.641 -2.023,-2.931 -3.255,-3.87 -1.584,-1.231 -3.754,-1.935 -6.51,-2.11 -4.749,-0.41 -8.532,1.378 -11.347,5.365 -1.994,2.933 -3.401,6.421 -4.222,10.468 -0.176,0.527 -0.411,1.35 -0.704,2.463 -0.646,3.577 -0.968,6.803 -0.968,9.675 0,4.047 0.645,7.917 1.936,11.611 0.762,2.17 2.315,3.93 4.662,5.277 2.169,1.291 4.397,1.936 6.685,1.936 1.524,0 3.049,-0.322 4.574,-0.968 1.056,-0.409 2.668,-2.315 4.838,-5.718 0.469,-0.761 0.85,-1.641 1.144,-2.639 0.352,-1.348 0.585,-2.199 0.703,-2.551 0.469,-1.113 0.718,-2.536 0.748,-4.266 0.028,-1.729 0.161,-2.976 0.396,-3.738 -1.466,-0.117 -3.46,0 -5.981,0.352 -3.401,0.527 -5.132,0.791 -5.189,0.791 -1.935,0 -3.313,-0.761 -4.134,-2.286 -0.235,-0.528 -0.294,-1.085 -0.176,-1.672 0.233,-0.703 0.732,-1.319 1.495,-1.847 1.172,-0.88 3.136,-1.201 5.894,-0.968 4.163,0.411 7.505,0.615 10.027,0.615 0.352,0 1.319,-0.028 2.902,-0.088 1.408,-0.058 2.463,-0.058 3.167,0 0.88,-0.058 1.905,0.03 3.079,0.265 0.703,0.646 1.055,1.378 1.055,2.198 -0.003,0.588 -0.209,1.087 -0.618,1.497 z" />
    </g>
  </g>
</svg>

<svg version="1.1" width="66" height="79" xmlns="http://www.w3.org/2000/svg" xmlns:xlink="http://www.w3.org/1999/xlink">
  <!-- Exported by Scratch - http://scratch.mit.edu/ -->
  <g id="ID0.7915165354497731">
    <g id="ID0.42775065964087844">
      <g id="ID0.6343233711086214">
        <path id="ID0.12705623172223568" fill="#00CCCC" d="M 61.360 49.730 C 60.570 50.530 59.510 51.390 58.130 52.130 C 58.330 53.710 58.560 55.520 58.830 57.550 C 59.230 58.590 59.660 59.810 60.120 61.290 C 60.310 61.920 60.450 62.560 60.530 63.220 C 61.120 67.980 59.190 72.610 55.360 75.580 C 52.630 77.700 49.340 78.830 45.840 78.830 C 43.170 78.830 40.700 78.160 38.600 76.910 C 35.640 78 32.440 78.560 29.030 78.560 C 24.090 78.560 19.250 77.370 14.670 75.010 C 10.500 72.950 7.100 69.570 4.550 64.980 C 1.530 59.530 0 52.970 0 45.480 C 0 43.300 0.120 41.380 0.380 39.620 C 0.550 38.420 0.770 36.710 1.060 34.490 C 1.180 33.540 1.430 32.610 1.790 31.730 C 2.180 29.850 2.770 27.520 3.580 24.650 C 3.690 24.250 3.830 23.860 3.980 23.470 C 7.390 15.110 12.280 9.080 18.520 5.560 C 23.280 2.870 28.390 1.500 33.700 1.500 C 35.790 1.500 37.820 1.710 39.790 2.140 C 41.830 0.840 44.440 0 47.680 0 C 49.500 0 51.240 0.370 52.870 1.090 C 57.070 2.880 59.970 6.580 60.660 11.080 C 60.680 11.220 60.700 11.360 60.720 11.500 C 61 13.920 60.860 16.920 60.270 21.160 C 60.230 23.120 59.880 25.200 59.200 27.500 C 59.070 27.940 58.910 28.370 58.720 28.790 C 59.380 29.180 60 29.640 60.580 30.170 C 63.550 32.900 65.190 36.560 65.190 40.470 C 65.190 43.970 63.830 47.260 61.360 49.730 Z "/>
      </g>
    </g>
    <g id="ID0.38214122224599123">
      <path id="ID0.8642155146226287" fill="#FFFFFF" d="M 53.575 41.965 C 52.988 42.552 52.080 42.874 50.848 42.932 C 51.668 42.874 50.672 42.816 47.857 42.756 C 47.681 44.399 47.299 46.626 46.713 49.442 C 47.006 51.963 47.475 55.630 48.120 60.437 C 48.530 61.316 49.029 62.695 49.616 64.571 C 49.732 65.510 49.395 66.287 48.604 66.902 C 47.812 67.518 46.888 67.826 45.833 67.826 C 44.835 67.826 44.103 67.533 43.634 66.946 C 43.574 66.361 43.399 65.451 43.106 64.219 C 42.519 62.577 42.255 61.551 42.315 61.140 C 42.373 61.140 42.315 61.024 42.138 60.788 C 38.854 65.305 34.486 67.561 29.033 67.561 C 25.807 67.561 22.670 66.769 19.621 65.186 C 17.451 64.130 15.633 62.283 14.168 59.644 C 12.057 55.832 11.001 51.112 11.001 45.482 C 11.001 43.841 11.089 42.404 11.265 41.172 C 11.441 39.940 11.675 38.182 11.969 35.895 C 12.085 35.778 12.202 35.542 12.321 35.191 C 12.614 33.491 13.229 30.969 14.169 27.627 C 16.632 21.588 19.886 17.424 23.932 15.137 C 27.040 13.377 30.294 12.498 33.696 12.498 C 37.800 12.498 41.495 13.848 44.780 16.544 C 44.838 16.486 44.896 16.223 44.956 15.752 C 44.838 14.991 44.838 13.876 44.956 12.410 C 45.189 11.472 46.100 11.002 47.683 11.002 C 47.976 11.002 48.240 11.062 48.475 11.179 C 49.236 11.473 49.676 12 49.794 12.762 C 49.970 14.287 49.794 16.838 49.266 20.414 C 49.324 21.470 49.120 22.789 48.651 24.372 C 48.005 25.076 47.272 25.428 46.452 25.428 C 45.162 25.428 44.223 24.871 43.638 23.757 C 43.638 23.347 43.550 22.819 43.374 22.173 C 42.436 20.532 41.351 19.242 40.119 18.303 C 38.535 17.072 36.365 16.368 33.609 16.193 C 28.860 15.783 25.077 17.571 22.262 21.558 C 20.268 24.491 18.861 27.979 18.040 32.026 C 17.864 32.553 17.629 33.376 17.336 34.489 C 16.690 38.066 16.368 41.292 16.368 44.164 C 16.368 48.211 17.013 52.081 18.304 55.775 C 19.066 57.945 20.619 59.705 22.966 61.052 C 25.135 62.343 27.363 62.988 29.651 62.988 C 31.175 62.988 32.700 62.666 34.225 62.020 C 35.281 61.611 36.893 59.705 39.063 56.302 C 39.532 55.541 39.913 54.661 40.207 53.663 C 40.559 52.315 40.792 51.464 40.910 51.112 C 41.379 49.999 41.628 48.576 41.658 46.846 C 41.686 45.117 41.819 43.870 42.054 43.108 C 40.588 42.991 38.594 43.108 36.073 43.460 C 32.672 43.987 30.941 44.251 30.884 44.251 C 28.949 44.251 27.571 43.490 26.750 41.965 C 26.515 41.437 26.456 40.880 26.574 40.293 C 26.807 39.590 27.306 38.974 28.069 38.446 C 29.241 37.566 31.205 37.245 33.963 37.478 C 38.126 37.889 41.468 38.093 43.990 38.093 C 44.342 38.093 45.309 38.065 46.892 38.005 C 48.300 37.947 49.355 37.947 50.059 38.005 C 50.939 37.947 51.964 38.035 53.138 38.270 C 53.841 38.916 54.193 39.648 54.193 40.468 C 54.190 41.056 53.984 41.555 53.575 41.965 Z "/>
    </g>
  </g>
</svg>
